X:1
T:Title
%%score { ( 1 4 ) | ( 2 3 5 ) }
L:1/8
M:3/4
K:Ab
V:1 treble nm="Grand Piano"
V:4 treble 
V:2 bass 
V:3 bass 
V:5 bass 
V:1
 z2 z2[Q:1/4=90] CD | [CE]3 E FE | =D2 E2 _DC | [G,B,]3 G FG | A2 E2 CD | [CE]3 E FE | =D2 E2 AA | %7
 [B,G]3 B FG |[M:2/4] [CA]4 |[M:1/4] cc |[M:3/4] c4 z2 | B2 A2 z2 | B4 z2 |[M:5/8] [C=E]2 z z2 | %14
[M:1/4] EE |[M:3/4] [Ec]4 z2 | B2 F2 z2 | Ec [Ge]d [Ec]B |[M:2/4] [A,CA]4 |[M:1/4] z2 | %20
[M:3/4] B-[GB-] [GB]G FE | CC [CA]2 ee | e-[Ae-] [Be][B=e] [Gf][Bd] | c4 z2 | B4 z2 | B2 z2 z2 | %26
 z[K:bass] E,[Q:1/4=79] D[K:treble]E cB[Q:1/4=89][Q:1/4=87][Q:1/4=86][Q:1/4=84][Q:1/4=83][Q:1/4=82][Q:1/4=80][Q:1/4=77][Q:1/4=76][Q:1/4=75][Q:1/4=73][Q:1/4=72][Q:1/4=70][Q:1/4=69] | %27
[M:7/8] A-[CA-][DA-] [DA-] [CA]3 |] %28
V:2
 z2 z2 A,B, | z2 z C DC | _C2 =C2 B,A, | z2 z D DD | [A,,E,]4 A,B, | z2 z C DC | _C2 =C2 CC | %7
 z2 z D DD |[M:2/4] [A,,E,]4 |[M:1/4] z2 |[M:3/4] C,[=E,G,] [E,G,][E,G,C] [E,G,C][E,G,C] | %11
 F,,[F,A,] [F,A,C][F,A,] [F,A,C][F,A,C] | D,[F,A,] [F,A,][F,A,D] [F,A,D][F,A,D] |[M:5/8] C,2 B,,3 | %14
[M:1/4] CC |[M:3/4] A,,E, E,[E,A,C] [E,A,C][E,A,CE] | D-[F,D-] [F,A,D-][F,D] _CC | %17
 CE z[K:treble] F z D |[M:2/4][K:bass] A,,4 |[M:1/4][K:treble] cc | %20
[M:3/4][K:bass] E,[E,D] [E,D][E,DE] [E,B,D][E,G,D] | [A,,A,][A,,A,] [A,,E,]2 z2 | %22
 [E,B,][E,C] [E,D][E,D] [E,B,][K:treble][G,E] | [A,EA][A,E] [A,E]2 z2 | %24
 [E,D][E,D] [E,D][E,B,] [=E,C][E,C] | [F,CF][E,C] [F,CF]2 [_C=D][CD] | %26
 .[E,C]2 [E,B,][E,G,D] [E,G,E][E,G,D] |[M:7/8] z A,F, =E, _E,3 |] %28
V:3
 x6 | [A,,A,]6- | [A,,A,]4 z2 | [E,,E,]6 | x6 | [A,,A,]6- | [A,,A,]4 z2 | [E,,E,]6 |[M:2/4] x4 | %9
[M:1/4] x2 |[M:3/4] x6 | x6 | x6 |[M:5/8] x5 |[M:1/4] x2 |[M:3/4] x6 | .D,2 z2 z2 | %17
 z2 B,2[K:treble] G,2 |[M:2/4][K:bass] x4 |[M:1/4][K:treble] x2 |[M:3/4][K:bass] x6 | x6 | %22
 x5[K:treble] x | x6 | x6 | x6 | x6 |[M:7/8] A,,-A,,-A,,- A,,- A,,3 |] %28
V:4
 x6 | x6 | x6 | x6 | C4 z2 | x6 | x6 | x6 |[M:2/4] x4 |[M:1/4] x2 |[M:3/4] z C CB GB | z C z C AA | %12
 z D DA GF |[M:5/8] G,2- [G,D_E]3 |[M:1/4] x2 |[M:3/4] z [A,C] [A,C][_Ge] [Fd]c | z A, z A, GF | %17
 x6 |[M:2/4] x4 |[M:1/4] x2 |[M:3/4] .[DG]2 z2 z2 | E2 z2 z2 | .G2 z2 z2 | z A A2 cc | %24
 GG G[Gd] [Gc]G | z F A2 GF | E4[K:bass][K:treble] z2 |[M:7/8] [A,C] z z z z z2 |] %28
V:5
 x6 | x6 | x6 | x6 | x6 | x6 | x6 | x6 |[M:2/4] x4 |[M:1/4] x2 |[M:3/4] x6 | x6 | x6 |[M:5/8] x5 | %14
[M:1/4] x2 |[M:3/4] x6 | x6 | [E,-A,]2 E,4[K:treble] |[M:2/4][K:bass] x4 |[M:1/4][K:treble] x2 | %20
[M:3/4][K:bass] x6 | x6 | x5[K:treble] x | x6 | x6 | x6 | x6 |[M:7/8] x7 |] %28

